X: 1
T: Marknads hambo-masurka
O: efter J.P.Nystr\"oms
Z: John Chambers <jc@trillian.mit.edu>
D: Manifest MAN 22 (1995)
M: 3/4
L: 1/8
K: G
|: "G"d>g b2 a2 | a<b g4 | "D7"d>e c2  A2  | "G"ed (3BdB G>B \
|  "G"d>g b2 a2 | a<b g4 | "D7"d>d e>e f>f | "G"gz g4 :| [K:D]
^g2- \
|: "D"a>^g a2 g>a | "Em"b>g e3 d | "A7"c>b a<g e>c | "D"d>e f<g a2- \
|  "D"a>^g a2 g>a | "Em"b>g e3 d | "A7"c>b a<g e>c | "D"d2 d4 :|
|: "D"A>A  d2 c2  | "Em"cB  G4   | "A7"B>B c2  B2  | "D"BA F4 \
|  "D"a>^g a2 g>a | "Em"b>g e3 d | "A7"c>b a<g e>c |  "D"dz d4 :|

%%sep 1 1 500

